media/images/mastercard.svg

<svg width="38" height="32" viewBox="0 0 38 32" fill="none" xmlns="http://www.w3.org/2000/svg">
<path d="M13.048 27.9263V26.3451C13.0571 26.2124 13.0383 26.0794 12.9931 25.9547C12.9478 25.8301 12.8771 25.7167 12.7856 25.6222C12.6941 25.5277 12.5839 25.4542 12.4624 25.4066C12.341 25.359 12.2109 25.3385 12.0811 25.3463C11.9106 25.3348 11.7403 25.3704 11.5879 25.4492C11.4355 25.528 11.3066 25.6472 11.2147 25.7943C11.1308 25.6516 11.0109 25.5347 10.8675 25.4558C10.7241 25.377 10.5625 25.3391 10.3998 25.3463C10.258 25.3389 10.1168 25.3696 9.99014 25.4353C9.86349 25.5009 9.75583 25.5992 9.67782 25.7205V25.4095H9.14148V27.9263H9.68299V26.5322C9.67099 26.4459 9.67789 26.358 9.70321 26.2749C9.72853 26.1917 9.77162 26.1153 9.82937 26.0513C9.88712 25.9872 9.95808 25.937 10.0371 25.9045C10.1162 25.8719 10.2013 25.8576 10.2864 25.8628C10.6422 25.8628 10.8227 26.1 10.8227 26.5269V27.9263H11.3642V26.5322C11.3532 26.4461 11.3608 26.3586 11.3864 26.2759C11.4121 26.1931 11.4552 26.1171 11.5128 26.0533C11.5703 25.9894 11.6409 25.9393 11.7195 25.9064C11.7981 25.8735 11.8828 25.8586 11.9676 25.8628C12.3338 25.8628 12.5091 26.1 12.5091 26.5269V27.9263H13.048ZM16.065 26.6692V25.4122H15.5235V25.7179C15.4326 25.5979 15.3149 25.5019 15.1804 25.4377C15.0459 25.3735 14.8983 25.3431 14.7499 25.3489C14.408 25.3489 14.08 25.4877 13.8382 25.7348C13.5965 25.982 13.4606 26.3171 13.4606 26.6666C13.4606 27.016 13.5965 27.3512 13.8382 27.5983C14.08 27.8454 14.408 27.9843 14.7499 27.9843C14.8983 27.9901 15.0459 27.9596 15.1804 27.8955C15.3149 27.8313 15.4326 27.7352 15.5235 27.6153V27.921H16.0598L16.065 26.6692ZM14.0718 26.6692C14.0803 26.5209 14.1311 26.3784 14.2179 26.2592C14.3047 26.1401 14.4237 26.0495 14.5603 25.9985C14.6968 25.9476 14.8449 25.9386 14.9864 25.9727C15.1279 26.0067 15.2566 26.0823 15.3566 26.1901C15.4566 26.2979 15.5235 26.4333 15.5492 26.5795C15.5748 26.7258 15.5581 26.8765 15.501 27.0131C15.444 27.1497 15.349 27.2663 15.2279 27.3485C15.1069 27.4307 14.9649 27.4749 14.8195 27.4756C14.7169 27.4781 14.6149 27.4586 14.52 27.4185C14.4252 27.3783 14.3396 27.3184 14.2687 27.2425C14.1978 27.1666 14.1433 27.0763 14.1084 26.9776C14.0736 26.8789 14.0594 26.7739 14.0666 26.6692H14.0718ZM27.5243 25.3515C27.7009 25.3511 27.8759 25.3851 28.04 25.4517C28.1966 25.5158 28.3394 25.6107 28.4603 25.731C28.5796 25.8503 28.6743 25.9927 28.7388 26.15C28.8735 26.4879 28.8735 26.8663 28.7388 27.2042C28.6744 27.3615 28.5797 27.504 28.4603 27.6232C28.3394 27.7435 28.1966 27.8384 28.04 27.9026C27.7 28.0376 27.3228 28.0376 26.9828 27.9026C26.8269 27.8385 26.6849 27.7436 26.565 27.6232C26.4469 27.5035 26.3531 27.3611 26.2891 27.2042C26.1547 26.8662 26.1547 26.488 26.2891 26.15C26.3531 25.9931 26.4469 25.8507 26.565 25.731C26.6849 25.6107 26.8269 25.5157 26.9828 25.4517C27.1528 25.3797 27.3351 25.3429 27.5191 25.3436L27.5243 25.3515ZM27.5243 25.8786C27.4193 25.8771 27.315 25.8968 27.2174 25.9366C27.1255 25.9742 27.0422 26.0307 26.9725 26.1026C26.9014 26.1783 26.8461 26.2679 26.81 26.3661C26.7312 26.5766 26.7312 26.8093 26.81 27.0197C26.846 27.118 26.9013 27.2076 26.9725 27.2833C27.0421 27.3552 27.1255 27.4117 27.2174 27.4493C27.4139 27.5279 27.6321 27.5279 27.8286 27.4493C27.9249 27.4129 28.0127 27.3563 28.0864 27.2833C28.1577 27.2077 28.213 27.118 28.2489 27.0197C28.3276 26.8093 28.3276 26.5766 28.2489 26.3661C28.213 26.2678 28.1577 26.1781 28.0864 26.1026C28.0127 26.0295 27.9249 25.973 27.8286 25.9366C27.7313 25.8911 27.6261 25.866 27.5191 25.8628L27.5243 25.8786ZM18.9788 26.6692C18.9788 25.8786 18.4992 25.3515 17.8107 25.3515C17.4688 25.3564 17.1427 25.4999 16.9043 25.7505C16.6659 26.0011 16.5347 26.3382 16.5395 26.6877C16.5443 27.0371 16.6847 27.3703 16.9299 27.614C17.175 27.8576 17.5049 27.9918 17.8468 27.9869C18.2139 27.9997 18.5728 27.874 18.855 27.6337L18.5972 27.2279C18.3936 27.3948 18.1413 27.4875 17.8803 27.4914C17.703 27.507 17.5268 27.4513 17.3891 27.3361C17.2514 27.221 17.163 27.0555 17.1429 26.8748H18.9711C18.9788 26.8089 18.9788 26.743 18.9788 26.6692ZM17.1454 26.4478C17.1554 26.2805 17.2284 26.1237 17.349 26.0102C17.4697 25.8967 17.6287 25.8354 17.7927 25.8391C17.8729 25.8373 17.9527 25.8518 18.0275 25.8815C18.1023 25.9113 18.1707 25.9559 18.2286 26.0126C18.2866 26.0694 18.333 26.1373 18.3653 26.2124C18.3975 26.2876 18.415 26.3685 18.4167 26.4505L17.1454 26.4478ZM21.2351 26.0525C20.9996 25.914 20.7332 25.8395 20.4615 25.8364C20.1676 25.8364 19.9922 25.9471 19.9922 26.1316C19.9922 26.3161 20.1779 26.3477 20.4099 26.3793L20.6678 26.4162C21.2041 26.4953 21.5291 26.7272 21.5291 27.1699C21.5291 27.6127 21.1165 27.9922 20.4074 27.9922C20.0273 28.0025 19.654 27.8879 19.3424 27.6654L19.6003 27.2384C19.8369 27.4179 20.1257 27.5107 20.4203 27.502C20.7864 27.502 20.9824 27.3913 20.9824 27.1963C20.9824 27.054 20.8431 26.9749 20.5492 26.9327L20.2913 26.8959C19.7395 26.8168 19.4404 26.5638 19.4404 26.1527C19.4404 25.652 19.8426 25.3463 20.4718 25.3463C20.824 25.3342 21.1721 25.4257 21.4749 25.6098L21.2351 26.0525ZM23.8137 25.9102H22.9395V27.0461C22.9395 27.3096 23.0272 27.4677 23.2954 27.4677C23.4628 27.4621 23.626 27.4131 23.7698 27.3254L23.9246 27.7945C23.7235 27.9227 23.4911 27.9903 23.2541 27.9895C22.6198 27.9895 22.398 27.6417 22.398 27.0566V25.9102H21.8978V25.4095H22.398V24.6453H22.9395V25.4095H23.8137V25.9102ZM25.6677 25.3463C25.7978 25.3468 25.9269 25.37 26.0493 25.4148L25.8843 25.9419C25.7777 25.8984 25.6638 25.8769 25.5491 25.8786C25.1984 25.8786 25.0334 26.1105 25.0334 26.5269V27.9368H24.497V25.4201H25.0282V25.7258C25.094 25.6102 25.1891 25.5149 25.3035 25.45C25.4179 25.3851 25.5472 25.3529 25.678 25.3568L25.6677 25.3463ZM29.3757 27.56C29.4092 27.5595 29.4425 27.5658 29.4737 27.5784C29.5033 27.5908 29.5304 27.6086 29.5536 27.6311C29.5763 27.6538 29.5947 27.6806 29.6078 27.7102C29.6208 27.741 29.6276 27.7741 29.6276 27.8077C29.6276 27.8412 29.6208 27.8744 29.6078 27.9052C29.5947 27.9347 29.5763 27.9615 29.5536 27.9843C29.5304 28.0067 29.5033 28.0246 29.4737 28.037C29.4428 28.0509 29.4095 28.0581 29.3757 28.058C29.3268 28.0577 29.2791 28.0431 29.238 28.016C29.1969 27.989 29.1642 27.9505 29.1436 27.9052C29.1307 27.8744 29.1241 27.8412 29.1241 27.8077C29.1241 27.7742 29.1307 27.741 29.1436 27.7102C29.1568 27.6806 29.1751 27.6538 29.1978 27.6311C29.221 27.6086 29.2481 27.5908 29.2777 27.5784C29.3049 27.5674 29.3336 27.5611 29.3628 27.56H29.3757ZM29.3757 28.0053C29.4015 28.0055 29.4269 28.0001 29.4505 27.9895C29.4727 27.9794 29.4928 27.9651 29.5098 27.9474C29.5317 27.9248 29.5478 27.8972 29.5569 27.8669C29.566 27.8365 29.5676 27.8044 29.5618 27.7732C29.556 27.7421 29.5428 27.7129 29.5234 27.6881C29.504 27.6633 29.479 27.6438 29.4505 27.6311C29.4269 27.6206 29.4014 27.6152 29.3757 27.6153C29.35 27.6154 29.3246 27.6208 29.3009 27.6311C29.2778 27.6408 29.2567 27.6552 29.239 27.6733C29.2068 27.7092 29.1889 27.7563 29.1889 27.805C29.1889 27.8538 29.2068 27.9008 29.239 27.9368C29.2569 27.9553 29.2782 27.9699 29.3017 27.9799C29.3251 27.9899 29.3503 27.9949 29.3757 27.9948V28.0053ZM29.3912 27.6917C29.4153 27.6905 29.439 27.698 29.4582 27.7128C29.4661 27.7195 29.4723 27.728 29.4764 27.7376C29.4804 27.7472 29.4822 27.7577 29.4814 27.7682C29.4818 27.7769 29.4804 27.7856 29.4773 27.7938C29.4742 27.802 29.4694 27.8094 29.4634 27.8156C29.4484 27.8295 29.4294 27.8378 29.4092 27.8393L29.484 27.9263H29.4247L29.3551 27.8393H29.3319V27.9263H29.2829V27.6838L29.3912 27.6917ZM29.3345 27.7365V27.7998H29.3912C29.4013 27.8029 29.412 27.8029 29.4221 27.7998C29.4239 27.7961 29.4249 27.792 29.4249 27.7879C29.4249 27.7838 29.4239 27.7797 29.4221 27.7761C29.4239 27.7724 29.4249 27.7683 29.4249 27.7642C29.4249 27.7601 29.4239 27.756 29.4221 27.7523C29.412 27.7493 29.4013 27.7493 29.3912 27.7523L29.3345 27.7365Z" fill="black"/>
<path d="M23.04 6.2085H14.9174V21.1272H23.04V6.2085Z" fill="#7673C0"/>
<path d="M15.4331 13.6701C15.4316 12.2331 15.7501 10.8146 16.3643 9.52203C16.9786 8.22944 17.8726 7.09665 18.9787 6.20943C17.6092 5.10949 15.9646 4.4255 14.2328 4.23564C12.5009 4.04578 10.7518 4.3577 9.1852 5.13576C7.61863 5.91382 6.29784 7.12662 5.3738 8.63556C4.44975 10.1445 3.95972 11.8887 3.95972 13.6688C3.95972 15.4489 4.44975 17.1931 5.3738 18.702C6.29784 20.2109 7.61863 21.4237 9.1852 22.2018C10.7518 22.9799 12.5009 23.2918 14.2328 23.1019C15.9646 22.9121 17.6092 22.2281 18.9787 21.1281C17.873 20.2412 16.9792 19.1088 16.3649 17.8167C15.7506 16.5246 15.432 15.1066 15.4331 13.6701Z" fill="#EB001B"/>
<path d="M33.112 19.5459V19.2508H33.2332V19.1875H32.9263V19.2508H33.0475V19.5565L33.112 19.5459ZM33.7076 19.5459V19.177H33.6148L33.5065 19.4405L33.3982 19.177H33.3028V19.5459H33.3699V19.2692L33.4704 19.5091H33.54L33.6406 19.2692V19.5486L33.7076 19.5459Z" fill="#00A1DF"/>
<path d="M33.9964 13.6691C33.996 15.4489 33.5057 17.1926 32.5816 18.7012C31.6575 20.2097 30.3369 21.4221 28.7706 22.2C27.2043 22.9778 25.4554 23.2897 23.7239 23.1C21.9924 22.9103 20.348 22.2266 18.9786 21.1271C20.0839 20.2394 20.9775 19.1067 21.5919 17.8146C22.2063 16.5224 22.5256 15.1045 22.5256 13.6678C22.5256 12.2311 22.2063 10.8132 21.5919 9.52103C20.9775 8.22886 20.0839 7.09618 18.9786 6.20845C20.348 5.10817 21.9926 4.42385 23.7246 4.23371C25.4565 4.04358 27.2058 4.3553 28.7726 5.13325C30.3394 5.9112 31.6604 7.12398 32.5846 8.63296C33.5088 10.1419 33.9989 11.8862 33.999 13.6665L33.9964 13.6691Z" fill="#00A1DF"/>
</svg>

<svg width="38" height="32" fill="none" xmlns="http://www.w3.org/2000/svg"><path d="M13.048 27.926v-1.58a.954.954 0 0 0-.262-.724.914.914 0 0 0-.705-.276.936.936 0 0 0-.493.103.961.961 0 0 0-.373.345.915.915 0 0 0-.348-.338.89.89 0 0 0-.467-.11.799.799 0 0 0-.41.09.82.82 0 0 0-.312.285v-.311H9.14v2.516h.542v-1.394a.6.6 0 0 1 .146-.48.573.573 0 0 1 .457-.19c.356 0 .537.238.537.665v1.4h.541v-1.395a.607.607 0 0 1 .149-.479.579.579 0 0 1 .455-.19c.366 0 .541.237.541.664v1.4h.539zm3.017-1.257v-1.257h-.542v.306a.916.916 0 0 0-.774-.369c-.341 0-.669.139-.91.386a1.333 1.333 0 0 0-.378.932c0 .349.136.684.377.931.242.247.57.386.912.386a.917.917 0 0 0 .774-.369v.306h.536l.005-1.252zm-1.993 0a.772.772 0 0 1 .146-.41.748.748 0 0 1 .342-.26.73.73 0 0 1 .797.191.768.768 0 0 1 .144.823.758.758 0 0 1-.273.335.733.733 0 0 1-.409.128.724.724 0 0 1-.55-.233.758.758 0 0 1-.202-.574h.005zm13.452-1.317c.177 0 .352.033.516.1a1.288 1.288 0 0 1 .699.698c.134.338.134.716 0 1.054a1.274 1.274 0 0 1-.699.699 1.43 1.43 0 0 1-1.057 0 1.273 1.273 0 0 1-.694-.699 1.429 1.429 0 0 1 0-1.054 1.273 1.273 0 0 1 .694-.698c.17-.072.352-.11.536-.108l.005.008zm0 .527a.783.783 0 0 0-.307.058.722.722 0 0 0-.407.43.933.933 0 0 0 0 .653.721.721 0 0 0 .407.43.822.822 0 0 0 .87-.167.768.768 0 0 0 .162-.263.934.934 0 0 0 0-.654.767.767 0 0 0-.163-.263.735.735 0 0 0-.257-.166.786.786 0 0 0-.31-.074l.005.016zm-8.545.79c0-.79-.48-1.317-1.168-1.317a1.276 1.276 0 0 0-.907.398c-.238.251-.37.588-.364.938.004.35.145.682.39.926.245.244.575.378.917.373.367.013.726-.113 1.008-.353l-.258-.406a1.15 1.15 0 0 1-.717.263.673.673 0 0 1-.49-.155.702.702 0 0 1-.247-.461h1.828c.008-.066.008-.132.008-.206zm-1.834-.221a.654.654 0 0 1 .204-.438.627.627 0 0 1 .444-.17.6.6 0 0 1 .436.173.625.625 0 0 1 .188.438l-1.272-.003zm4.09-.396a1.56 1.56 0 0 0-.773-.216c-.294 0-.47.111-.47.296 0 .184.186.216.418.247l.258.037c.536.08.861.311.861.754s-.413.822-1.122.822a1.75 1.75 0 0 1-1.065-.327l.258-.427c.237.18.526.273.82.264.366 0 .562-.11.562-.306 0-.142-.139-.221-.433-.263l-.258-.037c-.552-.08-.85-.332-.85-.743 0-.501.402-.807 1.03-.807.353-.012.701.08 1.004.264l-.24.442zm2.579-.142h-.875v1.136c0 .264.088.422.356.422a.973.973 0 0 0 .475-.143l.155.47a1.239 1.239 0 0 1-.67.194c-.635 0-.857-.347-.857-.932V25.91h-.5v-.5h.5v-.765h.541v.765h.875v.5zm1.854-.564c.13 0 .259.024.381.069l-.165.527a.853.853 0 0 0-.335-.063c-.35 0-.516.231-.516.648v1.41h-.536V25.42h.531v.306a.734.734 0 0 1 .276-.276.715.715 0 0 1 .374-.093l-.01-.01zm3.708 2.214a.252.252 0 0 1 .178.071.25.25 0 0 1 0 .353.26.26 0 0 1-.178.074.253.253 0 0 1-.138-.042.262.262 0 0 1-.094-.11.253.253 0 0 1 .054-.275.258.258 0 0 1 .165-.071h.013zm0 .445a.179.179 0 0 0 .134-.058.197.197 0 0 0-.06-.316.182.182 0 0 0-.15 0 .19.19 0 0 0-.061.042.198.198 0 0 0 0 .264.192.192 0 0 0 .137.058v.01zm.015-.313a.101.101 0 0 1 .067.02.067.067 0 0 1 .023.056.064.064 0 0 1-.018.048.09.09 0 0 1-.054.023l.075.087h-.06l-.069-.087h-.023v.087h-.05v-.242l.11.008zm-.056.044v.064h.056c.01.003.021.003.031 0a.027.027 0 0 0 0-.024.027.027 0 0 0 .003-.012.027.027 0 0 0-.003-.012.054.054 0 0 0-.03 0l-.058-.015z" fill="#000"/><path d="M23.04 6.208h-8.123v14.92h8.123V6.207z" fill="#7673C0"/><path d="M15.433 13.67a9.645 9.645 0 0 1 .931-4.148 9.436 9.436 0 0 1 2.615-3.313 9.175 9.175 0 0 0-4.746-1.973 9.108 9.108 0 0 0-5.048.9 9.356 9.356 0 0 0-3.811 3.5 9.642 9.642 0 0 0-1.414 5.033c0 1.78.49 3.524 1.414 5.033a9.356 9.356 0 0 0 3.811 3.5 9.108 9.108 0 0 0 5.048.9 9.174 9.174 0 0 0 4.746-1.974 9.436 9.436 0 0 1-2.614-3.311 9.644 9.644 0 0 1-.932-4.147z" fill="#EB001B"/><path d="M33.112 19.546v-.295h.121v-.064h-.307v.064h.121v.305l.065-.01zm.596 0v-.369h-.093l-.108.264-.109-.264h-.095v.369h.067v-.277l.1.24h.07l.1-.24v.28l.068-.003zm.288-5.876c0 1.779-.49 3.523-1.414 5.031A9.356 9.356 0 0 1 28.77 22.2a9.11 9.11 0 0 1-5.047.9 9.175 9.175 0 0 1-4.745-1.973 9.451 9.451 0 0 0 2.613-3.312 9.66 9.66 0 0 0 .934-4.147 9.66 9.66 0 0 0-.934-4.147 9.451 9.451 0 0 0-2.613-3.313 9.175 9.175 0 0 1 4.746-1.974 9.108 9.108 0 0 1 5.048.9 9.356 9.356 0 0 1 3.812 3.499 9.642 9.642 0 0 1 1.414 5.034l-.003.002z" fill="#00A1DF"/></svg>
